source/img/icon-house.svg

<svg enable-background="new 0 0 74.695 72.346" height="72.346" viewBox="0 0 74.695 72.346" width="74.695" xmlns="http://www.w3.org/2000/svg"><path d="m29.503 65.345h16v-23.938h-16zm13.063-2.938h-10.125v-18.062h10.125z"/><path d="m72.62 39.44 2.075-2.078-9.907-9.913v-26.979h-13.814v13.161l-13.625-13.631-37.349 37.363 2.077 2.078 7.832-7.832v37.799h-3.938v2.938h63.875v-2.938h-5.059v-37.8zm-18.707-36.032h7.938v21.104l-7.938-7.94zm7.937 65.999h-49.004v-40.736l24.502-24.502 24.502 24.502z"/><path d="m29.753 27.21c0 4.28 3.47 7.75 7.75 7.75s7.75-3.47 7.75-7.75c0-4.279-3.47-7.75-7.75-7.75s-7.75 3.47-7.75 7.75zm7.75-4.969c2.745 0 4.97 2.225 4.97 4.97s-2.225 4.971-4.97 4.971-4.97-2.226-4.97-4.971 2.226-4.97 4.97-4.97z"/><path d="m16.909 41.407h3v3.938h-3z"/><path d="m22.846 41.407h3v3.938h-3z"/><path d="m16.909 47.407h3v3.938h-3z"/><path d="m22.846 47.407h3v3.938h-3z"/><path d="m48.846 41.407h3v3.938h-3z"/><path d="m54.784 41.407h3v3.938h-3z"/><path d="m48.846 47.407h3v3.938h-3z"/><path d="m54.784 47.407h3v3.938h-3z"/></svg>

<svg version="1.1" id="Layer_1" xmlns="http://www.w3.org/2000/svg" xmlns:xlink="http://www.w3.org/1999/xlink" x="0px" y="0px" width="74.695px" height="72.346px" viewBox="0 0 74.695 72.346" enable-background="new 0 0 74.695 72.346" xml:space="preserve">
  <g>
    <path d="M29.503,65.345h16V41.407h-16V65.345z M42.566,62.407H32.441V44.345h10.125V62.407z"/>
    <path d="M72.62,39.44l2.075-2.078l-9.907-9.913V0.47H50.974v13.161L37.349,0L0,37.363l2.077,2.078l7.832-7.832v37.799H5.971v2.938 h63.875v-2.938h-5.059v-37.8L72.62,39.44z M53.913,3.408h7.938v21.104l-7.938-7.94V3.408z M61.85,69.407H12.846V28.671 L37.348,4.169L61.85,28.671V69.407z"/>
    <path d="M29.753,27.21c0,4.28,3.47,7.75,7.75,7.75s7.75-3.47,7.75-7.75c0-4.279-3.47-7.75-7.75-7.75S29.753,22.93,29.753,27.21z M37.503,22.241c2.745,0,4.97,2.225,4.97,4.97s-2.225,4.971-4.97,4.971s-4.97-2.226-4.97-4.971S34.759,22.241,37.503,22.241z"/>
    <rect x="16.909" y="41.407" width="3" height="3.938"/>
    <rect x="22.846" y="41.407" width="3" height="3.938"/>
    <rect x="16.909" y="47.407" width="3" height="3.938"/>
    <rect x="22.846" y="47.407" width="3" height="3.938"/>
    <rect x="48.846" y="41.407" width="3" height="3.938"/>
    <rect x="54.784" y="41.407" width="3" height="3.938"/>
    <rect x="48.846" y="47.407" width="3" height="3.938"/>
    <rect x="54.784" y="47.407" width="3" height="3.938"/>
  </g>
</svg>
